X:1
T:Title
%%score { ( 1 4 ) | ( 2 3 ) }
L:1/8
M:3/4
K:A
V:1 treble nm="Grand Piano"
V:4 treble 
V:2 bass 
V:3 bass 
V:1
 z2 z2[Q:1/4=116] [A,CE]2 | [CEA]4 [CEA]2 | [CEA]4 [EAc]2 | [GB]4 [GB]2 | [GB]4 [Bd]2 | c4 e2 | %6
 c4 [EA]2 |[M:2/4] [EGB]4 |[M:1/4] [G,E]2 |[M:3/4] A4 z2 | [CEA]4 [EAc]2 | [GB]4 [GB]2 | %12
 [GB]4 [Bd]2 | c2 e2 A-[FAB] | [EAc]4 [DGB]2 |[M:2/4] [CEA]4 |] %16
V:2
 z2 z2 A,,2 | A,,4 A,,2 | A,,4 A,,2 | [E,E]4 [E,E]2 | [E,E]4[K:treble] [G,E]2 | [A,EA]4 [A,CA]2 | %6
 [A,EA]4[K:bass] C,2 |[M:2/4] E,4 |[M:1/4] z D |[M:3/4] z2 C2 A,,2 | A,,4 A,,2 | [E,E]4 [E,E]2 | %12
 [E,E]4[K:treble] [G,E]2 | E2 z2[K:bass] z2 | E,4 E,2 |[M:2/4] A,,4 |] %16
V:3
 x6 | x6 | x6 | x6 | x4[K:treble] x2 | x6 | x4[K:bass] x2 |[M:2/4] x4 |[M:1/4] E,2 | %9
[M:3/4] A,,4 z2 | x6 | x6 | x4[K:treble] x2 | [A,A]2- [A,CA]2[K:bass] C,D, | x6 |[M:2/4] x4 |] %16
V:4
 x6 | x6 | x6 | x6 | x6 | x6 | x6 |[M:2/4] x4 |[M:1/4] x2 |[M:3/4] [A,C]2 E2 [CEA]2 | x6 | x6 | %12
 x6 | z2 z2 .E2 | x6 |[M:2/4] x4 |] %16

